X: 35115
T: Rolling Waves, The
R: jig
M: 6/8
K: Dmajor
|:~F3 EDE|F2D DED|~F3 FEF|d2e fdA|
~F3 EDE|F2D DEF|AFE EFA|~B3 B3:|
|:ABd e2f|d2c ~B3|ABd e2f|dcA B3|
ABd ede|fdB BAF|AFE EFA|~B3 B3:|

